usr/share/icons/biglinux-icons-material/24/actions/object-order-back.svg

<svg xmlns="http://www.w3.org/2000/svg" viewBox="0 0 24 24">
  <defs id="defs3051">
    <style type="text/css" id="current-color-scheme">
      .ColorScheme-Text {
        color:#dedede;
      }
      </style>
  </defs>
 <path style="fill:currentColor;fill-opacity:1;stroke:none" 
     d="M 7 4 L 7 7.9394531 L 7 16.091797 L 4.71875 13.845703 L 4 14.554688 L 7.28125 17.785156 L 7.5 18 L 7.71875 17.785156 L 11 14.554688 L 10.28125 13.845703 L 8 16.091797 L 8 7.9394531 L 8 4 L 7 4 z M 11 5 L 11 6 L 20 6 L 20 5 L 11 5 z M 17 7 L 17 8 L 20 8 L 20 7 L 17 7 z M 13 9 L 13 10 L 20 10 L 20 9 L 13 9 z M 11 11 L 11 12 L 20 12 L 20 11 L 11 11 z M 16 13 L 16 14 L 20 14 L 20 13 L 16 13 z M 13 15 L 13 16 L 20 16 L 20 15 L 13 15 z M 12 17 L 12 18 L 20 18 L 20 17 L 12 17 z M 4 19 L 4 20 L 20 20 L 20 19 L 4 19 z "
     class="ColorScheme-Text"
     />
</svg>

<svg xmlns="http://www.w3.org/2000/svg" viewBox="0 0 24 24"><path d="M7 4V16.092l-2.281-2.246-.719.709 3.281 3.23L7.5 18l.219-.215L11 14.555l-.719-.71L8 16.093V4H7zm4 1v1h9V5h-9zm6 2v1h3V7h-3zm-4 2v1h7V9h-7zm-2 2v1h9v-1h-9zm5 2v1h4v-1h-4zm-3 2v1h7v-1h-7zm-1 2v1h8v-1h-8zm-8 2v1h16v-1H4z" style="fill:currentColor;fill-opacity:1;stroke:none;color:#dedede"/></svg>
